X:1
T:Awake, Thou Wintry Earth!
T:Awake, Thou Wintry Earth!
T:George Frederick Root, 1875
T:Thomas Blackburne, 1850, alt.
T:Public Domain Courtesy of the Cyber Hymnal™
C:George Frederick Root, 1875
Z:Public Domain
Z:Courtesy of the Cyber Hymnal™
%%score 1 ( 2 3 )
L:1/8
Q:1/4=113
M:4/4
K:Bb
V:1 treble 
V:2 bass 
V:3 bass 
V:1
 [DB]2 | [DB]2 [DF]2 [^C=E]2 [CG]2 | [DF]6 z2 | ([Dd]2 [Dd]2) [Ec]2 [FB]2 | ([FB]4 [FA]2) [FB]2 | %5
w: 1.~A-|wake, thou win- try|earth!|Fling * off thy|sadness! * Fair|
w: 2.~Wave,|woods, your blos- soms|all,|Grim * Death is|dead! * Ye|
w: 3.~Come,|see the graves are|green;|In * light, we|go * Where|
w: 4.~A-|ll is fresh and|new,|Full~of * spring and|light: * Cold|
w: 5.~Lea-|ve thy cares be-|neath;|Leave~thy * world- ly|love; * Be-|
 [EG]2 [^FA]2 [EG]2 [EB]2 | [DF]2 [EG]2 [EA]2 [DB]2 | [Fc]4 [Fd]2 z2 | [FB]4 [Ec]2 [EA]2 | %9
w: ver- nal flowers laugh|forth Your an- cient|glad- ness!|Christ is ris-|
w: weep- ing fun- eral|trees, Lift up your|he- ad!|Christ is ris-|
w: now our loved ones|rest In hope be-|lo- w.|Christ is ris-|
w: heart, why wear- est|hue Of sleep and|ni- ght?|Christ is ris-|
w: gin the bet- ter|life With God a-|bo- ve!|Christ is ris-|
 [DB]4 z2 |] %10
w: en!|
w: en!|
w: en!|
w: en!|
w: en!|
V:2
 [B,,F,]2 | [B,,F,]2 [B,,F,]2 [B,,G,]2 [B,,=E,]2 | [B,,F,]6 z2 | ([B,,F,]2 [B,,F,]2) [C,A,]2 B,2 | %4
 ([F,D]4 [F,C]2) [D,B,]2 | [E,B,]2 [E,B,]2 [E,B,]2 [E,G,]2 | [B,,B,]2 [E,B,]2 [C,F,]2 [B,,F,]2 | %7
 [F,A,]4 [B,,B,]2 z2 | B,4 [F,A,]2 [F,C]2 | [B,,B,]4 z2 |] %10
V:3
 x2 | x8 | x8 | x6 (D,E,) | x8 | x8 | x8 | x8 | D,2 E,2 x4 | x6 |] %10

